img/toolbar/func_caustic.svg

<svg height="24" width="24" xmlns="http://www.w3.org/2000/svg" xmlns:xlink="http://www.w3.org/1999/xlink">
  <filter id="a" height="1.391745" width="1.172991" x="-.086495" y="-.195872">
    <feGaussianBlur stdDeviation=".81613532"/>
  </filter>
  <path d="m21.5 22c1.774156-7 1.78361-14 0-20-6.5 5-11 5-19 0-2.23059211 4.8270559-1.82038793 14.759709-.5 20 8-5 12.5-5 19.5 0z" fill="#fc0" fill-rule="evenodd" stroke="#ff9c00"/>
  <path d="m22.227273 17c1.209279-3.358781 1.240348-6.864185 0-10-6.5 2.5-12.5064938 2.5-20.5064938 0-1.6944077 2.4901257-1.38928389 7.441441-.5 10 8-2.5 14.0064938-2.5 21.0064938 0z" fill="#ffea93" fill-rule="evenodd" filter="url(#a)"/>
  <path d="m3 0c-3 8-3 17 0 24" fill="none" stroke="#454545" stroke-linecap="round" stroke-width="1.5"/>
  <path d="m20.75 0c3 8 3 17 0 24" fill="none" stroke="#454545" stroke-linecap="round" stroke-width="1.5"/>
  <text fill="#100080" font-family="Times New Roman" font-size="16.430622" font-style="italic" font-weight="bold" transform="scale(.95298724 1.049332)" x="6.650317" y="15.049776"><tspan x="6.650317" y="15.049776">ω</tspan></text>
</svg>

<?xml version="1.0" encoding="UTF-8" standalone="no"?>
<!-- Created with Inkscape (http://www.inkscape.org/) -->

<svg
   xmlns:dc="http://purl.org/dc/elements/1.1/"
   xmlns:cc="http://creativecommons.org/ns#"
   xmlns:rdf="http://www.w3.org/1999/02/22-rdf-syntax-ns#"
   xmlns:svg="http://www.w3.org/2000/svg"
   xmlns="http://www.w3.org/2000/svg"
   xmlns:xlink="http://www.w3.org/1999/xlink"
   xmlns:sodipodi="http://sodipodi.sourceforge.net/DTD/sodipodi-0.dtd"
   xmlns:inkscape="http://www.inkscape.org/namespaces/inkscape"
   width="24"
   height="24"
   id="svg2742"
   sodipodi:version="0.32"
   inkscape:version="0.48.2 r9819"
   version="1.0"
   sodipodi:docname="func_caustic.svg"
   inkscape:output_extension="org.inkscape.output.svg.inkscape"
   inkscape:export-filename="L:\projects\rezonator2\img\func_caustic_24.png"
   inkscape:export-xdpi="90"
   inkscape:export-ydpi="90">
  <defs
     id="defs2744">
    <linearGradient
       inkscape:collect="always"
       id="linearGradient7639">
      <stop
         style="stop-color:#ff9c00;stop-opacity:1;"
         offset="0"
         id="stop7641" />
      <stop
         style="stop-color:#ff9c00;stop-opacity:0;"
         offset="1"
         id="stop7643" />
    </linearGradient>
    <linearGradient
       id="linearGradient7627">
      <stop
         style="stop-color:#ffcc00;stop-opacity:1;"
         offset="0"
         id="stop7629" />
      <stop
         id="stop7635"
         offset="0.530303"
         style="stop-color:#ffea8e;stop-opacity:1;" />
      <stop
         style="stop-color:#ffcc00;stop-opacity:1;"
         offset="1"
         id="stop7631" />
    </linearGradient>
    <inkscape:perspective
       sodipodi:type="inkscape:persp3d"
       inkscape:vp_x="0 : 526.18109 : 1"
       inkscape:vp_y="0 : 1000 : 0"
       inkscape:vp_z="744.09448 : 526.18109 : 1"
       inkscape:persp3d-origin="372.04724 : 350.78739 : 1"
       id="perspective2750" />
    <linearGradient
       inkscape:collect="always"
       xlink:href="#linearGradient7639"
       id="linearGradient7645"
       x1="13.918169"
       y1="12"
       x2="36.834165"
       y2="12"
       gradientUnits="userSpaceOnUse" />
    <filter
       inkscape:collect="always"
       id="filter3177"
       x="-0.086495432"
       width="1.1729909"
       y="-0.19587248"
       height="1.391745">
      <feGaussianBlur
         inkscape:collect="always"
         stdDeviation="0.81613532"
         id="feGaussianBlur3179" />
    </filter>
  </defs>
  <sodipodi:namedview
     id="base"
     pagecolor="#ffffff"
     bordercolor="#666666"
     borderopacity="1.0"
     gridtolerance="10000"
     guidetolerance="10"
     objecttolerance="10"
     inkscape:pageopacity="0.0"
     inkscape:pageshadow="2"
     inkscape:zoom="38.5"
     inkscape:cx="14.400652"
     inkscape:cy="10.320447"
     inkscape:document-units="px"
     inkscape:current-layer="layer1"
     showgrid="true"
     inkscape:window-width="1920"
     inkscape:window-height="1144"
     inkscape:window-x="-4"
     inkscape:window-y="-4"
     inkscape:window-maximized="0">
    <inkscape:grid
       type="xygrid"
       id="grid2752"
       visible="true"
       enabled="true" />
  </sodipodi:namedview>
  <metadata
     id="metadata2747">
    <rdf:RDF>
      <cc:Work
         rdf:about="">
        <dc:format>image/svg+xml</dc:format>
        <dc:type
           rdf:resource="http://purl.org/dc/dcmitype/StillImage" />
        <dc:title></dc:title>
      </cc:Work>
    </rdf:RDF>
  </metadata>
  <g
     inkscape:label="Layer 1"
     inkscape:groupmode="layer"
     id="layer1">
    <path
       id="path7109"
       style="fill:#ffcc00;fill-rule:evenodd;stroke:#ff9c00;stroke-width:1px;stroke-linecap:butt;stroke-linejoin:miter;stroke-opacity:1;fill-opacity:1"
       d="M 21.5,22 C 23.274156,15 23.28361,8 21.5,2 C 15,7 10.5,7 2.5,2 C 0.26940789,6.8270559 0.67961207,16.759709 2,22 C 10,17 14.5,17 21.5,22 z"
       sodipodi:nodetypes="ccccc" />
    <path
       sodipodi:nodetypes="ccccc"
       d="M 22.227273,17 C 23.436552,13.641219 23.467621,10.135815 22.227273,7 C 15.727273,9.5 9.7207792,9.5 1.7207792,7 C 0.026371502,9.4901257 0.33149531,14.441441 1.2207792,17 C 9.2207792,14.5 15.227273,14.5 22.227273,17 z"
       style="fill:#ffea93;fill-opacity:1;fill-rule:evenodd;stroke:none;stroke-width:1px;stroke-linecap:butt;stroke-linejoin:miter;stroke-opacity:1;filter:url(#filter3177)"
       id="path3171" />
    <path
       style="fill:none;fill-rule:evenodd;stroke:#454545;stroke-width:1.50000000000000000;stroke-linecap:round;stroke-linejoin:miter;stroke-opacity:1;stroke-miterlimit:4;stroke-dasharray:none"
       d="M 3,0 C 1.3322676e-15,8 0,17 3,24"
       id="path7623"
       sodipodi:nodetypes="cc" />
    <path
       sodipodi:nodetypes="cc"
       id="path7625"
       d="M 20.75,0 C 23.75,8 23.75,17 20.75,24"
       style="fill:none;fill-rule:evenodd;stroke:#454545;stroke-width:1.50000000000000000;stroke-linecap:round;stroke-linejoin:miter;stroke-miterlimit:4;stroke-dasharray:none;stroke-opacity:1" />
    <text
       xml:space="preserve"
       style="font-size:16.4306221px;font-style:italic;font-variant:normal;font-weight:bold;font-stretch:normal;text-align:start;line-height:100%;writing-mode:lr-tb;text-anchor:start;fill:#100080;fill-opacity:1;stroke:none;font-family:Times New Roman;-inkscape-font-specification:Times New Roman Bold Italic"
       x="6.6503172"
       y="15.049776"
       id="text3181"
       sodipodi:linespacing="100%"
       transform="scale(0.95298724,1.049332)"><tspan
         sodipodi:role="line"
         id="tspan3185"
         x="6.6503172"
         y="15.049776">ω</tspan></text>
  </g>
</svg>
